src/assets/icons/months,fancy,july-7.svg

<svg width="48" height="48" viewBox="0 0 48 48" fill="none" xmlns="http://www.w3.org/2000/svg">
<rect opacity="0.2" x="4" y="6" width="40" height="40" rx="4" fill="black"/>
<path d="M14.733 24.3636V32.4773C14.7273 33.5966 14.2273 34.1875 13.3182 34.1875C12.4602 34.1875 11.9034 33.6534 11.8864 32.7273H9.4375C9.42614 35.0511 11.0852 36.1591 13.1932 36.1591C15.5511 36.1591 17.1591 34.733 17.1648 32.4773V24.3636H14.733ZM26.3864 24.3636V31.7102C26.3864 33.0398 25.4545 34 24.0227 34C22.5966 34 21.6591 33.0398 21.6591 31.7102V24.3636H19.1989V31.9205C19.1989 34.4659 21.1193 36.1648 24.0227 36.1648C26.9148 36.1648 28.8466 34.4659 28.8466 31.9205V24.3636H26.3864ZM30.8707 36H38.3196V33.9716H33.331V24.3636H30.8707V36Z" fill="black"/>
<g opacity="0.4">
<path d="M10 4C10 2.89543 10.8954 2 12 2C13.1046 2 14 2.89543 14 4V8C14 9.10457 13.1046 10 12 10C10.8954 10 10 9.10457 10 8V4Z" fill="black"/>
<path d="M34 4C34 2.89543 34.8954 2 36 2C37.1046 2 38 2.89543 38 4V8C38 9.10457 37.1046 10 36 10C34.8954 10 34 9.10457 34 8V4Z" fill="black"/>
</g>
<path fill-rule="evenodd" clip-rule="evenodd" d="M10 6.00869C7.52043 6.04456 6.11466 6.22849 5.17157 7.17157C4 8.34315 4 10.2288 4 14V16H44V14C44 10.2288 44 8.34315 42.8284 7.17157C41.8853 6.22849 40.4796 6.04456 38 6.00869V8C38 9.10457 37.1046 10 36 10C34.8954 10 34 9.10457 34 8V6H14V8C14 9.10457 13.1046 10 12 10C10.8954 10 10 9.10457 10 8V6.00869Z" fill="black"/>
</svg>

<svg xmlns="http://www.w3.org/2000/svg" width="48" height="48" fill="none" viewBox="0 0 48 48">
  <rect width="40" height="40" x="4" y="6" fill="#000" opacity=".2" rx="4"/>
  <path fill="#000" d="M14.733 24.364v8.113c-.006 1.12-.506 1.71-1.415 1.71-.858 0-1.415-.534-1.432-1.46H9.438c-.012 2.324 1.647 3.432 3.755 3.432 2.358 0 3.966-1.426 3.972-3.682v-8.113h-2.432zm11.653 0v7.346c0 1.33-.931 2.29-2.363 2.29-1.426 0-2.364-.96-2.364-2.29v-7.346H19.2v7.556c0 2.546 1.92 4.245 4.824 4.245 2.892 0 4.824-1.7 4.824-4.244v-7.557h-2.46zM30.871 36h7.449v-2.028H33.33v-9.608h-2.46V36z"/>
  <g opacity=".4">
    <path fill="#000" d="M10 4a2 2 0 114 0v4a2 2 0 11-4 0V4zM34 4a2 2 0 114 0v4a2 2 0 11-4 0V4z"/>
  </g>
  <path fill="#000" fill-rule="evenodd" d="M10 6.009c-2.48.036-3.885.22-4.828 1.163C4 8.343 4 10.229 4 14v2h40v-2c0-3.771 0-5.657-1.172-6.828-.943-.944-2.348-1.127-4.828-1.163V8a2 2 0 11-4 0V6H14v2a2 2 0 11-4 0V6.009z" clip-rule="evenodd"/>
</svg>
